assets/icons/qvision/rtt.svg

<svg xmlns="http://www.w3.org/2000/svg" height="24" viewBox="0 0 24 24" width="24"><path d="M0 0h24v24H0z" fill="none"/><title>ic_dialer_rtt_revised_24px</title><path d="M9.03 3l-1.11 7.07h2.62l.7-4.5h2.58L11.8 18.43H9.47L9.06 21h7.27l.4-2.57h-2.35l2-12.86h2.58l-.71 4.5h2.65L22 3H9.03zM8 5H4l-.31 2h4L8 5zm-.61 4h-4l-.31 2h4l.31-2zm.92 8h-6L2 19h6l.31-2zm.62-4h-6l-.31 2h6.01l.3-2z"/></svg>

<svg width="24" height="24" viewBox="0 0 24 24" fill="none" xmlns="http://www.w3.org/2000/svg">
<g clip-path="url(#clip0_147_1997)">
<path d="M9.03 3L7.92 10.07H10.54L11.24 5.57H13.82L11.8 18.43H9.47L9.06 21H16.33L16.73 18.43H14.38L16.38 5.57H18.96L18.25 10.07H20.9L22 3H9.03ZM8 5H4L3.69 7H7.69L8 5ZM7.39 9H3.39L3.08 11H7.08L7.39 9ZM8.31 17H2.31L2 19H8L8.31 17ZM8.93 13H2.93L2.62 15H8.63L8.93 13Z" fill="#323232"/>
</g>
<defs>
<clipPath id="clip0_147_1997">
<rect width="24" height="24" fill="white"/>
</clipPath>
</defs>
</svg>
